X: 14971
T: Gemima
R: reel
M: 4/4
K: Dmajor
DE|:FAdA BAFB|AFED EDB,D|A,3B, DEFA|BFAF E2DE|
FAdA BAFB|AFED EDB,D|A,3B, DEFA|BFAF D2DE:|
|:FA,A,D zG, B,G,|A,B,DE FGFE|FA,A, D zG, B,G,|A,B,DE D2DE|
FA,A, D zG, B,G,|A,B,DE FGFE|1 FGAF GABA|ABcA dBAG:|
[2FGAF GABG|ABcA BcdB|cdec defd|efge a2||

